public/cloud-icons/azure/data/azure-data-explorer-cluster.svg

<?xml version="1.0" encoding="UTF-8" standalone="no"?>
<!-- Generated by Microsoft Visio, SVG Export Azure Data Explorer Cluster.svg Page-1 -->

<svg
   xmlns:dc="http://purl.org/dc/elements/1.1/"
   xmlns:cc="http://creativecommons.org/ns#"
   xmlns:rdf="http://www.w3.org/1999/02/22-rdf-syntax-ns#"
   xmlns:svg="http://www.w3.org/2000/svg"
   xmlns="http://www.w3.org/2000/svg"
   xmlns:sodipodi="http://sodipodi.sourceforge.net/DTD/sodipodi-0.dtd"
   xmlns:inkscape="http://www.inkscape.org/namespaces/inkscape"
   width="56.336868"
   height="56.334991"
   viewBox="0 0 56.336866 56.334993"
   xml:space="preserve"
   class="st6"
   version="1.1"
   id="svg64"
   sodipodi:docname="Azure Data Explorer Cluster.svg"
   style="font-size:12px;overflow:visible;color-interpolation-filters:sRGB;fill:none;fill-rule:evenodd;stroke-linecap:square;stroke-miterlimit:3"
   inkscape:version="0.92.5 (2060ec1f9f, 2020-04-08)"><metadata
   id="metadata70"><rdf:RDF><cc:Work
       rdf:about=""><dc:format>image/svg+xml</dc:format><dc:type
         rdf:resource="http://purl.org/dc/dcmitype/StillImage" /></cc:Work></rdf:RDF></metadata><defs
   id="defs68" /><sodipodi:namedview
   pagecolor="#ffffff"
   bordercolor="#666666"
   borderopacity="1"
   objecttolerance="10"
   gridtolerance="10"
   guidetolerance="10"
   inkscape:pageopacity="0"
   inkscape:pageshadow="2"
   inkscape:window-width="640"
   inkscape:window-height="480"
   id="namedview66"
   showgrid="false"
   inkscape:zoom="2.3387409"
   inkscape:cx="28.166901"
   inkscape:cy="16.077392"
   inkscape:window-x="0"
   inkscape:window-y="0"
   inkscape:window-maximized="0"
   inkscape:current-layer="svg64" />
	<style
   type="text/css"
   id="style2">
	<![CDATA[
		.st1 {fill:#0078d4;stroke:none;stroke-linecap:butt;stroke-width:10.2}
		.st2 {fill:#b8d432;stroke:none;stroke-linecap:butt;stroke-width:10.2}
		.st3 {fill:#59b4d9;stroke:none;stroke-linecap:butt;stroke-width:10.2}
		.st4 {fill:#ffffff;fill-opacity:0.2;stroke:none;stroke-linecap:butt;stroke-width:10.2}
		.st5 {fill:#ffffff;stroke:none;stroke-linecap:butt;stroke-width:10.2}
		.st6 {fill:none;fill-rule:evenodd;font-size:12px;overflow:visible;stroke-linecap:square;stroke-miterlimit:3}
	]]>
	</style>

	<g
   id="g62"
   transform="translate(-10.2,-10.1969)">
		<title
   id="title4">Page-1</title>
		<g
   id="group20989-1"
   transform="translate(9.84087,-34.0157)">
			<title
   id="title6">Azure Data Explorer Cluster.20989</title>
			<g
   id="group20990-2">
				<title
   id="title8"> 1- Icon - Query 60x60 Color</title>
				<g
   id="shape20991-3"
   transform="translate(0.35913,-0.367252)">
					<title
   id="title10">Sheet.20991</title>
					<path
   d="M 56.33,44.58 H 0 l 56.33,56.33 z"
   class="st1"
   id="path12"
   inkscape:connector-curvature="0"
   style="fill:#0078d4;stroke:none;stroke-width:10.19999981;stroke-linecap:butt" />
				</g>
				<g
   id="shape20992-5"
   transform="rotate(-45,1.9904051,96.108647)">
					<title
   id="title15">Sheet.20992</title>
					<path
   d="m 0,100.03 a 0.883522,0.883395 -180 0 0 0.883501,0.88337 L 30.17,100.91 a 0.883522,0.883395 -180 0 0 0.883501,-0.88337 L 31.05,96.17 A 0.883522,0.883395 -180 0 0 30.166499,95.286626 L 0.88,95.28 a 0.883522,0.883395 -180 0 0 -0.883501,0.883374 z"
   class="st2"
   id="path17"
   inkscape:connector-curvature="0"
   style="fill:#b8d432;stroke:none;stroke-width:10.19999981;stroke-linecap:butt" />
				</g>
				<g
   id="shape20993-7"
   transform="rotate(-45,-17.257136,88.12064)">
					<title
   id="title20">Sheet.20993</title>
					<path
   d="m 0,100.03 a 0.883522,0.883395 -180 0 0 0.883501,0.88337 L 18.95,100.91 a 0.883522,0.883395 -180 0 0 0.883501,-0.88337 L 19.84,96.17 A 0.883522,0.883395 -180 0 0 18.956499,95.286626 L 0.88,95.28 a 0.883522,0.883395 -180 0 0 -0.883501,0.883374 z"
   class="st2"
   id="path22"
   inkscape:connector-curvature="0"
   style="fill:#b8d432;stroke:none;stroke-width:10.19999981;stroke-linecap:butt" />
				</g>
				<g
   id="shape20994-9"
   transform="translate(17.0217,-17.0274)">
					<title
   id="title25">Sheet.20994</title>
					<path
   d="M 0,77.9 23.01,100.91 39.67,84.25 V 61.24 H 16.66 Z"
   class="st3"
   id="path27"
   inkscape:connector-curvature="0"
   style="fill:#59b4d9;stroke:none;stroke-width:10.19999981;stroke-linecap:butt" />
				</g>
				<g
   id="shape20995-11"
   transform="rotate(-45,9.8818979,76.995784)">
					<title
   id="title30">Sheet.20995</title>
					<path
   d="m 0,100.03 a 0.883522,0.883395 -180 0 0 0.883501,0.88337 L 18.95,100.91 a 0.883522,0.883395 -180 0 0 0.883501,-0.88337 L 19.84,96.17 A 0.883522,0.883395 -180 0 0 18.956499,95.286626 L 0.88,95.28 a 0.883522,0.883395 -180 0 0 -0.883501,0.883374 z"
   class="st2"
   id="path32"
   inkscape:connector-curvature="0"
   style="fill:#b8d432;stroke:none;stroke-width:10.19999981;stroke-linecap:butt" />
				</g>
				<g
   id="shape20996-13"
   transform="translate(28.526,-0.367252)">
					<title
   id="title35">Sheet.20996</title>
					<path
   d="M 28.17,100.91 V 44.58 L 0,72.75 Z"
   class="st4"
   id="path37"
   inkscape:connector-curvature="0"
   style="fill:#ffffff;fill-opacity:0.2;stroke:none;stroke-width:10.19999981;stroke-linecap:butt" />
				</g>
				<g
   id="shape20997-15"
   transform="rotate(-45,-27.340948,44.622711)">
					<title
   id="title40">Sheet.20997</title>
					<path
   d="m 0,99.66 a 1.25158,1.2514 -180 0 0 1.25,1.25 H 4.37 A 1.25158,1.2514 -180 0 0 5.62,99.66 V 96.54 A 1.25158,1.2514 -180 0 0 4.37,95.28 H 1.25 A 1.25158,1.2514 -180 0 0 0,96.54 Z"
   class="st5"
   id="path42"
   inkscape:connector-curvature="0"
   style="fill:#ffffff;stroke:none;stroke-width:10.19999981;stroke-linecap:butt" />
				</g>
				<g
   id="shape20998-17"
   transform="rotate(-45,-32.963625,31.042381)">
					<title
   id="title45">Sheet.20998</title>
					<path
   d="m 0,99.66 a 1.25158,1.2514 -180 0 0 1.25,1.25 H 4.37 A 1.25158,1.2514 -180 0 0 5.62,99.66 V 96.54 A 1.25158,1.2514 -180 0 0 4.37,95.28 H 1.25 A 1.25158,1.2514 -180 0 0 0,96.54 Z"
   class="st5"
   id="path47"
   inkscape:connector-curvature="0"
   style="fill:#ffffff;stroke:none;stroke-width:10.19999981;stroke-linecap:butt" />
				</g>
				<g
   id="shape20999-19"
   transform="rotate(-45,-13.761876,38.996996)">
					<title
   id="title50">Sheet.20999</title>
					<path
   d="m 0,99.66 a 1.25158,1.2514 -180 0 0 1.25,1.25 H 4.37 A 1.25158,1.2514 -180 0 0 5.62,99.66 V 96.54 A 1.25158,1.2514 -180 0 0 4.37,95.28 H 1.25 A 1.25158,1.2514 -180 0 0 0,96.54 Z"
   class="st5"
   id="path52"
   inkscape:connector-curvature="0"
   style="fill:#ffffff;stroke:none;stroke-width:10.19999981;stroke-linecap:butt" />
				</g>
				<g
   id="shape21000-21"
   transform="rotate(-45,-19.385239,25.418219)">
					<title
   id="title55">Sheet.21000</title>
					<path
   d="m 0,99.66 a 1.25158,1.2514 -180 0 0 1.25,1.25 H 4.37 A 1.25158,1.2514 -180 0 0 5.62,99.66 V 96.54 A 1.25158,1.2514 -180 0 0 4.37,95.28 H 1.25 A 1.25158,1.2514 -180 0 0 0,96.54 Z"
   class="st5"
   id="path57"
   inkscape:connector-curvature="0"
   style="fill:#ffffff;stroke:none;stroke-width:10.19999981;stroke-linecap:butt" />
				</g>
			</g>
		</g>
	</g>
</svg>

<svg xmlns="http://www.w3.org/2000/svg" xml:space="preserve" width="56.337" height="56.335" style="font-size:12px;overflow:visible;color-interpolation-filters:sRGB;fill-rule:evenodd;stroke-linecap:square;stroke-miterlimit:3" viewBox="0 0 56.337 56.335"><g transform="translate(-10.2 -10.197)"><title>Page-1</title><g transform="translate(9.84 -34.016)"><title>Azure Data Explorer Cluster.20989</title><title> 1- Icon - Query 60x60 Color</title><g transform="translate(.36 -.367)"><title>Sheet.20991</title><path d="M56.33 44.58H0l56.33 56.33z" style="fill:#0078d4;stroke:none;stroke-width:10.19999981;stroke-linecap:butt"/></g><g transform="rotate(-45 1.99 96.109)"><title>Sheet.20992</title><path d="M0 100.03a.884.883-180 0 0 .884.883l29.286-.003a.884.883-180 0 0 .884-.883l-.004-3.857a.884.883-180 0 0-.884-.883L.88 95.28a.884.883-180 0 0-.884.883z" style="fill:#b8d432;stroke:none;stroke-width:10.19999981;stroke-linecap:butt"/></g><g transform="rotate(-45 -17.257 88.12)"><title>Sheet.20993</title><path d="M0 100.03a.884.883-180 0 0 .884.883l18.066-.003a.884.883-180 0 0 .884-.883l.006-3.857a.884.883-180 0 0-.884-.883L.88 95.28a.884.883-180 0 0-.884.883z" style="fill:#b8d432;stroke:none;stroke-width:10.19999981;stroke-linecap:butt"/></g><g transform="translate(17.022 -17.027)"><title>Sheet.20994</title><path d="m0 77.9 23.01 23.01 16.66-16.66V61.24H16.66Z" style="fill:#59b4d9;stroke:none;stroke-width:10.19999981;stroke-linecap:butt"/></g><g transform="rotate(-45 9.882 76.996)"><title>Sheet.20995</title><path d="M0 100.03a.884.883-180 0 0 .884.883l18.066-.003a.884.883-180 0 0 .884-.883l.006-3.857a.884.883-180 0 0-.884-.883L.88 95.28a.884.883-180 0 0-.884.883z" style="fill:#b8d432;stroke:none;stroke-width:10.19999981;stroke-linecap:butt"/></g><g transform="translate(28.526 -.367)"><title>Sheet.20996</title><path d="M28.17 100.91V44.58L0 72.75Z" style="fill:#fff;fill-opacity:.2;stroke:none;stroke-width:10.19999981;stroke-linecap:butt"/></g><g transform="rotate(-45 -27.34 44.623)"><title>Sheet.20997</title><path d="M0 99.66a1.252 1.251-180 0 0 1.25 1.25h3.12a1.252 1.251-180 0 0 1.25-1.25v-3.12a1.252 1.251-180 0 0-1.25-1.26H1.25A1.252 1.251-180 0 0 0 96.54Z" style="fill:#fff;stroke:none;stroke-width:10.19999981;stroke-linecap:butt"/></g><g transform="rotate(-45 -32.964 31.042)"><title>Sheet.20998</title><path d="M0 99.66a1.252 1.251-180 0 0 1.25 1.25h3.12a1.252 1.251-180 0 0 1.25-1.25v-3.12a1.252 1.251-180 0 0-1.25-1.26H1.25A1.252 1.251-180 0 0 0 96.54Z" style="fill:#fff;stroke:none;stroke-width:10.19999981;stroke-linecap:butt"/></g><g transform="rotate(-45 -13.762 38.997)"><title>Sheet.20999</title><path d="M0 99.66a1.252 1.251-180 0 0 1.25 1.25h3.12a1.252 1.251-180 0 0 1.25-1.25v-3.12a1.252 1.251-180 0 0-1.25-1.26H1.25A1.252 1.251-180 0 0 0 96.54Z" style="fill:#fff;stroke:none;stroke-width:10.19999981;stroke-linecap:butt"/></g><g transform="rotate(-45 -19.385 25.418)"><title>Sheet.21000</title><path d="M0 99.66a1.252 1.251-180 0 0 1.25 1.25h3.12a1.252 1.251-180 0 0 1.25-1.25v-3.12a1.252 1.251-180 0 0-1.25-1.26H1.25A1.252 1.251-180 0 0 0 96.54Z" style="fill:#fff;stroke:none;stroke-width:10.19999981;stroke-linecap:butt"/></g></g></g></svg>
